X: 42191
T: Watkin's Ale
R: three-two
M: 3/2
K: Fmajor
M:6/4
L: 1/4
|:f2 e f2 c|d2 c d2 A|B2 A B2 F|A2 G F3:|
|:FAF A>Bc|GBG B>cd|BdB d>ef|g2 f e c2:|
|:cff e3|Add c3|FBB A>GF|FEE F3:|

